X:1
T:Title
%%score { ( 1 3 ) | ( 2 4 ) }
L:1/8
M:4/4
K:Bb
V:1 treble nm="Grand Piano"
V:3 treble 
V:2 treble 
V:4 treble 
V:1
 z8[Q:1/4=108] | [F,B,DF]2 [B,DG]2 [DG]2 [B,DA]2 | [A,EG]4[K:bass] z4[K:treble] | [Dd]2 A2 B2 ^F2 | %4
[M:3/4] A4 G2 |[M:1/4] G>G |[M:4/4] [B,DG]2 [DA]2 [DB]2 [Dd]2 | [F=Bf]4 [FBe]2 d>d | %8
 [DAc]2 [DGB]2 [EA]2 G2 |[M:3/4] B4 A2 |[M:1/4] DD |[M:4/4] D2 [G,B,D]2 [G,CE]2 [A,F]2 | %12
 [F,A,D]6 [B,D][K:treble][B,D] | [B,DG]2 [B,D]2 [CG]2 [_DGA]2 | [D^FA]4 [CE=FA]4 | %15
 [DB]2 .[B,DA]2 [F,B,DF]2 .[F,B,DG]2 | [B,EG]4[K:bass] z4[K:treble] | [Dd]2 cB [DA]2 BG | %18
 [A,EG]4[K:bass] z4[K:treble] | z4 z2 .E2 | [G,CG]6 z2 | %21
 z4 [EB]2 [EA]2[Q:1/4=106][Q:1/4=105][Q:1/4=103][Q:1/4=102][Q:1/4=100][Q:1/4=98][Q:1/4=97][Q:1/4=95][Q:1/4=94][Q:1/4=92][Q:1/4=91][Q:1/4=89][Q:1/4=87][Q:1/4=86][Q:1/4=84][Q:1/4=83] | %22
[M:3/4] [DFB]6 |] %23
V:2
 z4 z2 F>F | B,,2 [F,,F,]2 [B,,F,B,]2 [F,,F,]2 | [B,,F,]2 F,,2 B,,2 [F,,F,]2 | %3
 [B,,B,]2 [D,F,D]2 [D,G,D]2 [D,A,C]2 |[M:3/4] [E,^F,C]4 [E,G,B,]2 |[M:1/4] z2 | %6
[M:4/4] [G,,G,]2 [D,G,B,]2 [G,,G,]2 [D,G,]2 | [G,,G,]4 [G,,G,]2 z2 | %8
 [^F,,^F,]2 [G,,G,]2 [A,,A,]2 [E,C]2 |[M:3/4] [D,G,D]4 [D,^F,D]2 |[M:1/4] D,[C,D,] | %11
[M:4/4] B,,2 G,,2 C,2 F,,2 | B,,6 B,,A,, | z2 G,2 z4 | D,4 C,4 | [B,,F,B,]2 z G B,,2 z A | %16
 [C,F,]2 F,,2 C,2 F,,2 | [B,,F,]2 [F,,F,]2 [B,,F,]2 [F,,F,]2 | [C,F,]2 F,,2 C,2 F,,2 | %19
 [B,,F,B,]2 [F,,F,]2 [D,,D,]2 [G,,G,]2 | [E,,E,]6[K:treble] B2 | %21
 F,,2 GB[K:bass] [F,,F,]2 [F,,F,]2 |[M:3/4] [B,,,B,,]6 |] %23
V:3
 x8 | x8 | z2[K:bass] F,2 [F,A,EF]2[K:treble] [A,EF]>[A,EF] | x8 |[M:3/4] x6 |[M:1/4] x2 | %6
[M:4/4] x8 | x8 | x8 |[M:3/4] x6 |[M:1/4] x2 |[M:4/4] x8 | x7[K:treble] x | x8 | x8 | x8 | %16
 z2[K:bass] F,2 [F,A,EF]2[K:treble] [F,A,EF]2 | z2 D2 z2 D2 | %18
 z2[K:bass] F,2 [F,A,EF]2[K:treble] [F,A,EF]2 | [DB]2 [B,DF]2 [F,_A,F]2 =B,-[B,D] | x8 | %21
 [F,B,DF]2 z2 c3 B |[M:3/4] x6 |] %23
V:4
 x8 | x8 | x8 | x8 |[M:3/4] x6 |[M:1/4] x2 |[M:4/4] x8 | x8 | x8 |[M:3/4] x6 |[M:1/4] x2 | %11
[M:4/4] x8 | x8 | G,,2 z F, E,2 E,2 | x8 | z2 [F,,F,]2 z2 F,,2 | x8 | x8 | x8 | x8 | %20
 x6[K:treble] x2 | x4[K:bass] x4 |[M:3/4] x6 |] %23

